rospo-icon-theme-classic-common/32x32/apps/com.github.danrabbit.harvey.svg

<svg height="32" width="32" xmlns="http://www.w3.org/2000/svg"><path d="m3.4003906 6c-.7756 0-1.4003906.61325-1.4003906 1.375v19.25c0 .76175.6247906 1.375 1.4003906 1.375h5.5292969.0703125 19.599609c.7756 0 1.400391-.61325 1.400391-1.375v-19.25c0-.76175-.624791-1.375-1.400391-1.375h-19.599609-.0703125z" opacity=".2"/><path d="m8.93 5v22h19.67c.7756 0 1.4-.61325 1.4-1.375v-19.25c0-.76175-.6244-1.375-1.4-1.375z" fill="#23c2c2"/><path d="m9 5h1v22h-1z" opacity=".1"/><path d="m3.4 5c-.7756 0-1.4.61325-1.4 1.375v19.25c0 .76175.6244 1.375 1.4 1.375h5.6v-22z" fill="#e4e4e4"/><circle cx="19" cy="16" fill="#3f3f3f" r="7"/><path d="m304.9375 131.9375-4.9375 4.9375-1.9375-1.9375-2.125 2.125 3 3 1.0625 1.0625 1.0625-1.0625 6-6z" opacity=".2" transform="matrix(.6741573 0 0 .65306122 -183.508431 -72.163265)"/><path d="m304.9375 131.9375-4.9375 4.9375-1.9375-1.9375-2.125 2.125 3 3 1.0625 1.0625 1.0625-1.0625 6-6z" fill="#fff" transform="matrix(.6741573 0 0 .65306122 -183.508431 -73.163265)"/><path d="m3.4003906 5c-.7756 0-1.4003906.61325-1.4003906 1.375v1c0-.76175.6247906-1.375 1.4003906-1.375h5.5292969.0703125 19.599609c.7756 0 1.400391.61325 1.400391 1.375v-1c0-.76175-.624791-1.375-1.400391-1.375h-19.599609-.0703125z" fill="#fff" opacity=".2"/></svg>

<svg xmlns="http://www.w3.org/2000/svg" width="32" height="32" version="1">
 <path d="M 3.4003906,6 C 2.6247906,6 2,6.61325 2,7.375 l 0,19.25 C 2,27.38675 2.6247906,28 3.4003906,28 L 8.9296875,28 9,28 28.599609,28 C 29.375209,28 30,27.38675 30,26.625 L 30,7.375 C 30,6.61325 29.375209,6 28.599609,6 L 9,6 8.9296875,6 3.4003906,6 Z" style="opacity:0.2"/>
 <path style="fill:#23c2c2" d="m 8.93,5 0,22 19.67,0 C 29.3756,27 30,26.38675 30,25.625 L 30,6.375 C 30,5.61325 29.3756,5 28.6,5 Z"/>
 <rect style="opacity:0.1" width="1" height="22" x="9" y="5"/>
 <path style="fill:#cccccc" d="M 3.4,5 C 2.6244,5 2,5.61325 2,6.375 l 0,19.25 C 2,26.38675 2.6244,27 3.4,27 L 9,27 9,5 Z"/>
 <circle style="fill:#3f3f3f" cx="19" cy="16" r="7"/>
 <g style="opacity:0.2" transform="matrix(0.6741573,0,0,0.65306122,14.019928,11.428571)">
  <g transform="translate(-293.0004,-128)">
   <path d="M 304.9375,131.9375 300,136.875 l -1.9375,-1.9375 -2.125,2.125 3,3 1.0625,1.0625 1.0625,-1.0625 6,-6 -2.125,-2.125 z"/>
  </g>
 </g>
 <g transform="matrix(0.6741573,0,0,0.65306122,14.019928,10.428571)" style="fill:#ffffff">
  <g transform="translate(-293.0004,-128)" style="fill:#ffffff">
   <path style="fill:#ffffff" d="M 304.9375,131.9375 300,136.875 l -1.9375,-1.9375 -2.125,2.125 3,3 1.0625,1.0625 1.0625,-1.0625 6,-6 -2.125,-2.125 z"/>
  </g>
 </g>
 <path style="fill:#ffffff;opacity:0.2" d="M 3.4003906 5 C 2.6247906 5 2 5.61325 2 6.375 L 2 7.375 C 2 6.61325 2.6247906 6 3.4003906 6 L 8.9296875 6 L 9 6 L 28.599609 6 C 29.375209 6 30 6.61325 30 7.375 L 30 6.375 C 30 5.61325 29.375209 5 28.599609 5 L 9 5 L 8.9296875 5 L 3.4003906 5 z"/>
</svg>
